src/assets/icons/system.svg

<?xml version="1.0" encoding="UTF-8"?>
<svg width="20px" height="20px" viewBox="0 0 20 20" version="1.1" xmlns="http://www.w3.org/2000/svg" xmlns:xlink="http://www.w3.org/1999/xlink">
    <title>设置备份</title>
    <g id="页面-1" stroke="none" stroke-width="1" fill="none" fill-rule="evenodd">
        <g id="画板" transform="translate(-341.000000, -476.000000)" fill-rule="nonzero">
            <g id="设置备份" transform="translate(341.000000, 476.000000)">
                <rect id="矩形" fill="#000000" opacity="0" x="0" y="0" width="20" height="20"></rect>
                <path d="M11.3074076,1.94794471 C11.4555471,1.64043372 11.7917097,1.47982289 12.1145777,1.56404564 C13.645352,1.96165539 15.037483,2.78821357 16.1352343,3.95362144 C16.3669396,4.19845502 16.4011256,4.57647808 16.2169009,4.86244371 C15.9168236,5.32468952 15.8978314,5.92012479 16.1694203,6.39999862 C16.4372109,6.87987245 16.9500013,7.16192074 17.4874816,7.12470603 C17.821745,7.10120201 18.1256208,7.32253157 18.2148843,7.65354658 C18.4275974,8.42722071 18.5358777,9.23027487 18.5358777,10.0431224 C18.5377523,10.8500939 18.4294966,11.653148 18.2148843,12.4307395 C18.1237216,12.7617545 17.8198458,12.9791667 17.4874816,12.95958 C16.9481021,12.9204067 16.4353117,13.202455 16.1694203,13.6862461 C15.8997306,14.1641613 15.9168236,14.7595966 16.2169009,15.2198837 C16.4011256,15.5058493 16.3669396,15.8838724 16.1352343,16.1306646 C15.0355838,17.2960725 13.6434528,18.1245894 12.1126785,18.5202404 C11.7898105,18.6025045 11.4536479,18.4438524 11.3055084,18.1363414 C11.064307,17.6368809 10.5781057,17.3274112 10.0349277,17.3274112 C9.4955482,17.3234939 9.00175004,17.6388395 8.76434707,18.1363414 C8.61620762,18.4438524 8.28004502,18.6025045 7.95717699,18.5182818 C6.42640267,18.1226307 5.03237247,17.2941138 3.93462116,16.128706 C3.70291586,15.8838724 3.66872984,15.5058493 3.85295454,15.2198837 C4.15493111,14.7556792 4.17202412,14.1661199 3.90043513,13.6842875 C3.63074536,13.2044136 3.11985418,12.9223653 2.58237387,12.9576214 C2.25000972,12.9791667 1.94803315,12.7597958 1.85687041,12.4287808 C1.64415735,11.6551067 1.5359016,10.8520525 1.5359016,10.0411637 C1.5359016,9.23419221 1.64415735,8.42917938 1.85876963,7.65354658 C1.94613392,7.3205729 2.25000972,7.09924334 2.58427309,7.12470603 C3.12365263,7.16192074 3.63454381,6.88183112 3.90233435,6.39999862 C4.17392334,5.92208346 4.15493111,5.32468952 3.85485376,4.86440237 C3.67062906,4.57843675 3.70481509,4.20041369 3.93652038,3.95362144 C5.03617091,2.78821357 6.4283019,1.95969672 7.95907622,1.56404564 C8.28194425,1.48178156 8.61810685,1.64043372 8.7662463,1.94794471 C9.00364926,2.44544655 9.49744743,2.76079221 10.036827,2.75883354 C10.5762065,2.76079221 11.0700047,2.44544655 11.3074076,1.94794471 Z M12.2475234,3.12314592 C11.71764,3.80867995 10.9123691,4.21608304 10.0330285,4.21608304 C9.17078095,4.22000038 8.35601397,3.81651463 7.81853366,3.12314592 C6.89171249,3.4365329 6.03706181,3.94382809 5.31155835,4.61369278 C5.62682949,5.4382923 5.55845744,6.36474259 5.12543443,7.13058204 C4.69810909,7.90033883 3.94981495,8.42526204 3.0970635,8.55453417 C2.89954423,9.53778585 2.89954423,10.5504176 3.0970635,11.5317106 C3.94981495,11.6629414 4.69810909,12.1878646 5.12543443,12.9576214 C5.55845744,13.7234608 5.62682949,14.6499111 5.31155835,15.4745106 C6.03896104,16.1424166 6.89171249,16.6497118 7.81853366,16.9630988 C8.35411475,16.2697301 9.17078095,15.8662444 10.0330285,15.8701617 C10.8952761,15.8662444 11.7119423,16.2697301 12.2475234,16.9630988 C13.1743445,16.6497118 14.0289952,16.1424166 14.7544987,15.472552 C14.4411268,14.6479524 14.5094988,13.7215022 14.9425218,12.9556627 C15.3698472,12.1859059 16.1181413,11.6609827 16.9708928,11.5297519 C17.1703112,10.5465002 17.1703112,9.53386851 16.9708928,8.55453417 C16.1181413,8.42526204 15.3698472,7.90033883 14.9425218,7.13058204 C14.5075996,6.36474259 14.4392275,5.4382923 14.7544987,4.61369278 C14.027096,3.94382809 13.1743445,3.4365329 12.2475234,3.12314592 Z M10.0359016,6.54179021 C11.9651241,6.54179021 13.5340249,8.1101065 13.5359016,10.0417902 C13.5359016,11.9715912 11.9651241,13.5417902 10.0359016,13.5417902 C8.10667908,13.5417902 6.5359016,11.9715912 6.5359016,10.0417902 C6.5359016,8.11198924 8.10667908,6.54179021 10.0359016,6.54179021 Z M10.0359016,7.9425433 C8.87799275,7.9425433 7.9359016,8.88390962 7.9359016,10.0417902 C7.9359016,11.1977881 8.87799275,12.1410371 10.0359016,12.1410371 C11.1938104,12.1410371 12.1359016,11.1996708 12.1359016,10.0417902 C12.1359016,8.88390962 11.1938104,7.9425433 10.0359016,7.9425433 Z" id="形状结合" fill="#FFFFFF"></path>
            </g>
        </g>
    </g>
</svg>

<svg width="20" height="20" xmlns="http://www.w3.org/2000/svg"><path d="M11.307 1.948a.701.701 0 0 1 .808-.384 8.44 8.44 0 0 1 4.02 2.39.742.742 0 0 1 .082.908c-.3.463-.32 1.058-.048 1.538.268.48.781.762 1.318.725a.707.707 0 0 1 .728.529 9.01 9.01 0 0 1 .32 2.39 8.896 8.896 0 0 1-.32 2.387.713.713 0 0 1-.728.529 1.39 1.39 0 0 0-1.318.726 1.484 1.484 0 0 0 .048 1.534.746.746 0 0 1-.082.91 8.439 8.439 0 0 1-4.022 2.39.704.704 0 0 1-.807-.384 1.402 1.402 0 0 0-2.541 0 .7.7 0 0 1-.808.382 8.43 8.43 0 0 1-4.022-2.39.742.742 0 0 1-.082-.908c.302-.464.319-1.054.047-1.536a1.41 1.41 0 0 0-1.318-.726.71.71 0 0 1-.725-.53 9.006 9.006 0 0 1 .002-4.774.7.7 0 0 1 .725-.53c.54.038 1.05-.242 1.318-.724a1.483 1.483 0 0 0-.047-1.536.746.746 0 0 1 .082-.91 8.439 8.439 0 0 1 4.022-2.39.704.704 0 0 1 .807.384c.238.497.731.813 1.27.81a1.407 1.407 0 0 0 1.271-.81Zm.94 1.175a2.788 2.788 0 0 1-4.429 0 7.005 7.005 0 0 0-2.506 1.49 2.97 2.97 0 0 1-.187 2.518 2.808 2.808 0 0 1-2.028 1.424 7.553 7.553 0 0 0 0 2.977 2.815 2.815 0 0 1 2.028 1.426 2.97 2.97 0 0 1 .187 2.517 7.044 7.044 0 0 0 2.507 1.488 2.785 2.785 0 0 1 2.214-1.093c.862-.004 1.679.4 2.215 1.093a7.005 7.005 0 0 0 2.506-1.49 2.976 2.976 0 0 1 .189-2.517 2.815 2.815 0 0 1 2.028-1.426c.2-.983.2-1.996 0-2.975a2.808 2.808 0 0 1-2.028-1.424 2.963 2.963 0 0 1-.189-2.517 7.02 7.02 0 0 0-2.506-1.49Zm-2.211 3.419a3.504 3.504 0 0 1 3.5 3.5c0 1.93-1.57 3.5-3.5 3.5s-3.5-1.57-3.5-3.5 1.57-3.5 3.5-3.5Zm0 1.4c-1.158 0-2.1.942-2.1 2.1 0 1.156.942 2.099 2.1 2.099 1.158 0 2.1-.941 2.1-2.1 0-1.157-.942-2.098-2.1-2.098Z" fill="#FFF" fill-rule="nonzero"/></svg>
